icons/glyphs/glyph-pie-chart.svg

<?xml version="1.0" encoding="UTF-8" standalone="no"?><svg height="16" viewBox="0 0 4.2333333 4.2333333" width="16" xmlns="http://www.w3.org/2000/svg"><sodipodi:namedview/><metadata><rdf:RDF><cc:Work><dc:format>image/svg+xml</dc:format><dc:type/><dc:title/></cc:Work></rdf:RDF></metadata><path d="m2.3598288.00762185v2.01561545l1.4073412 1.4073412a2.1168375 2.1168375 0 0 0  .4661633-1.3217796 2.1168375 2.1168375 0 0 0 -1.8735045-2.10117705zm-.4996011.002459a2.1168375 2.1168375 0 0 0 -1.86022773 2.09871805 2.1168375 2.1168375 0 0 0  .03343789.3737175l1.82678984-.4892748zm.2202965 2.44096465-1.89907458.5094357a2.1168375 2.1168375 0 0 0 1.93546288 1.2652303 2.1168375 2.1168375 0 0 0 1.2947342-.4435437z" fill="#d0d0d0" stroke-width=".402828"/></svg>

<?xml version="1.0" encoding="UTF-8" standalone="no"?>
<!-- Created with Inkscape (http://www.inkscape.org/) -->

<svg
   xmlns:dc="http://purl.org/dc/elements/1.1/"
   xmlns:cc="http://creativecommons.org/ns#"
   xmlns:rdf="http://www.w3.org/1999/02/22-rdf-syntax-ns#"
   xmlns:svg="http://www.w3.org/2000/svg"
   xmlns="http://www.w3.org/2000/svg"
   xmlns:sodipodi="http://sodipodi.sourceforge.net/DTD/sodipodi-0.dtd"
   xmlns:inkscape="http://www.inkscape.org/namespaces/inkscape"
   width="16"
   height="16"
   viewBox="0 0 4.2333333 4.2333333"
   version="1.1"
   id="svg8"
   inkscape:version="0.92+devel (7f3bd2b258, 2017-08-07, custom)"
   sodipodi:docname="glyph-pie-chart.svg">
  <defs
     id="defs2" />
  <sodipodi:namedview
     id="base"
     pagecolor="#002466"
     bordercolor="#ffffff"
     borderopacity="0.38039216"
     inkscape:pageopacity="1"
     inkscape:pageshadow="2"
     inkscape:zoom="26.8125"
     inkscape:cx="7.9440559"
     inkscape:cy="8"
     inkscape:document-units="px"
     inkscape:current-layer="svg8"
     inkscape:document-rotation="0"
     showgrid="false"
     inkscape:showpageshadow="false"
     borderlayer="true"
     inkscape:window-width="1920"
     inkscape:window-height="1027"
     inkscape:window-x="0"
     inkscape:window-y="24"
     inkscape:window-maximized="1"
     units="px"
     inkscape:snap-object-midpoints="true"
     inkscape:snap-grids="false"
     inkscape:snap-to-guides="false"
     inkscape:snap-bbox="true"
     inkscape:bbox-nodes="true"
     inkscape:object-paths="true" />
  <metadata
     id="metadata5">
    <rdf:RDF>
      <cc:Work
         rdf:about="">
        <dc:format>image/svg+xml</dc:format>
        <dc:type
           rdf:resource="http://purl.org/dc/dcmitype/StillImage" />
        <dc:title></dc:title>
      </cc:Work>
    </rdf:RDF>
  </metadata>
  <path
     style="fill:#d0d0d0;stroke-width:0.40282807"
     d="M 2.3598288,0.00762185 V 2.0232373 L 3.76717,3.4305785 A 2.1168375,2.1168375 0 0 0 4.2333333,2.1087989 2.1168375,2.1168375 0 0 0 2.3598288,0.00762185 Z m -0.4996011,0.002459 A 2.1168375,2.1168375 0 0 0 -2.5e-8,2.1087989 2.1168375,2.1168375 0 0 0 0.03343786,2.4825164 L 1.8602277,1.9932416 Z M 2.0805242,2.4510455 0.18144962,2.9604812 A 2.1168375,2.1168375 0 0 0 2.1169125,4.2257115 2.1168375,2.1168375 0 0 0 3.4116467,3.7821678 Z"
     id="path830"
     inkscape:connector-curvature="0" />
</svg>
